X: 19257
T: Itchy Fingers
R: reel
M: 4/4
K: Amixolydian
|:cd|e2ef eAce|fAdf e2cd|e2ef eAce|cAdc B2cd|
e2ef eAce|fAdf e2ce|dccB BfeB|c2A2 A2:|
|:ce|a2Aa caAa|fAda e2ce|a2Aa caAa|cAdc B2|
[1 ce|a2Aa caAa|fAda e2ce|dccB BfeB|c2A2 A2:|
[2 cd|e2ef e~c3|~d2af e2ce|dccB BfeB|c2A2 A2||
|:cd|eAce AceA|fAdf e2cd|eAce Aced|cAdc B2 cd|
eAce Acea|fAdf e2 ce|dccB BfeB|c2 A2 A2:|
|:fg|a2Aa caea|fada e2 fg|a2Aa caea|cAdc B2|
[1 fg|a2Aa caea|fada e2 ce|dccB BfeB|c2 A2 A2:|
[2 cd|e2ef e~c3|~d2af e2ce|dccB BfeB|c2A2 A2||

